X:62
T:L'Izobeletto
M:2/4
L:1/8
N:Assez vif
N:La Bourre 4th edition 1929, page 66
Z:Steve Mansfield www.lesession.co.uk May 2012
K:C
G G A B | c2 c G | A2 A2 |1 G4 :|
[2 G3 G || c c c d | e2 e c | e e e d/ c/ |
e2 d2- | d3 G | c c c d | e2 e e | d2 d2 | c4 |]
<end>
<start>
